packages/admin/admin-icons/icons/chevron-up.svg

<svg xmlns="http://www.w3.org/2000/svg" width="16" height="16" viewBox="0 0 16 16"><path fill="#242424" fill-rule="evenodd" d="M3.16271845,10.8312538 C2.96986695,10.6312582 2.94843901,10.3208082 3.09843462,10.0962672 L3.16271845,10.0164749 L8,5 L12.8372815,10.0164749 C13.0542395,10.2414699 13.0542395,10.6062588 12.8372815,10.8312538 C12.64443,11.0312493 12.3450696,11.053471 12.1285494,10.8979189 L12.0516073,10.8312538 L8,6.62943474 L3.94839266,10.8312538 C3.75554115,11.0312493 3.45618071,11.053471 3.23966055,10.8979189 L3.16271845,10.8312538 Z"/></svg>

<svg width="16" height="16" fill="none" viewBox="0 0 16 16">
  <path fill="#242424" fill-rule="evenodd" d="M3.163 10.831a.592.592 0 0 1-.065-.735l.065-.08L8 5l4.837 5.017a.591.591 0 0 1 0 .814.541.541 0 0 1-.708.067l-.077-.067L8 6.63l-4.052 4.202a.541.541 0 0 1-.708.067l-.077-.067Z" clip-rule="evenodd"/>
</svg>
